public/images/logos/new-york-islanders.svg

<svg viewBox="0 0 24 16" xmlns="http://www.w3.org/2000/svg"><g fill="#003893"><path d="m18.404 13.737c-.227 0-.411.184-.411.411s.185.411.411.411c.228 0 .412-.185.412-.411 0-.227-.184-.411-.412-.411zm0 .735c-.178 0-.323-.145-.323-.323s.146-.323.323-.323c.179 0 .323.145.323.323s-.144.323-.323.323z"/><path d="m18.573 14.053c0-.077-.062-.14-.14-.14h-.198v.47h.089v-.19h.063l.089.19h.097l-.093-.198c.055-.02.093-.072.093-.132zm-.139.051h-.109v-.104h.109c.029 0 .052.023.052.052s-.023.052-.052.052z"/></g><path d="m12 .589c-4.254 0-7.702 3.318-7.702 7.411s3.448 7.411 7.702 7.411 7.702-3.318 7.702-7.411-3.448-7.411-7.702-7.411z" fill="#f95602"/><path d="m19.205 7.562c-.008-.122-.015-.244-.029-.364l.003-.001c-.218-1.812-1.162-3.41-2.547-4.521-.15-.121-.307-.235-.468-.344-1.178-.797-2.613-1.268-4.164-1.268-.958 0-1.871.181-2.708.505-.699.271-1.345.644-1.916 1.1-1.591 1.272-2.605 3.188-2.605 5.331 0 3.831 3.236 6.936 7.229 6.936s7.229-3.105 7.229-6.936c0-.147-.007-.294-.016-.44" fill="#003893"/><path d="m11.289 11.921.987-.235c.088-.021.161-.081.199-.163l.613-1.304.542-1.153.381-.813.188-.4.388-.824 2.044-4.351c-.15-.121-.307-.235-.468-.344l-1.281 2.6-1.537-3.311c-.018-.04-.057-.064-.101-.064h-2.667c-.062 0-.111.05-.111.111v2.168l-1.174-2.269c-.699.271-1.345.644-1.916 1.1v4.035c0 .062.05.111.111.111h1.515c.061 0 .111-.05.111-.111v-1.803l1.115 1.86c.021.034.056.055.096.055h1.698c.062 0 .111-.05.111-.111v-3.5l1.747 3.763-.209.424-1.228 2.498-.211.427c-.043.089-.128.149-.226.163l-3.319.457c-.029.004-.056.02-.074.043-.018.024-.025.054-.021.084l.202 1.327c.005.031.022.059.048.076s.058.022.088.016l.329-.078" fill="#fff"/><g fill="#f95602"><path d="m13.165 10.057-.643-.328-.079.161.646.329zm.254-.542-.633-.324-.079.162.637.324zm-.844.106.641.326.076-.162-.638-.325zm-2.319 2.546-.058-.367c-.003-.02-.018-.035-.037-.04l-.646-.157c-.026-.007-.053.009-.06.035l-.195.766-.34 1.326c-.006.025.008.051.033.059l.38.124c.013.004.027.002.039-.004.012-.007.021-.019.023-.031l.099-.388.52.169.075.472c.003.018.016.033.033.039l.397.129c.017.006.034.002.048-.009.013-.012.02-.028.017-.046z"/><path d="m13.672 7.392c-.445-.07-.999.225-1.389.018-.448-.014-.971.016-1.367-.194-.259-.041-.535-.038-.77-.132-.126.236-.269-.077-.419-.031-.09.028-.166.127-.148.234-.047.244-.343.102-.496.204-.28.159-.436-.243-.704-.239-.183-.05-.4-.027-.502.159-.157.04-.237-.165-.416-.099-.124-.077.056-.129.009-.223-.102-.111-.292-.193-.436-.099-.026.191.179.356.07.558-.106.021-.1-.134-.191-.171-.101-.049-.106.076-.161.125-.2-.009-.158-.232-.222-.354-.232-.036-.418.106-.61.19-.134.103-.046.322-.161.429-.09-.068-.081-.197-.17-.277-.075-.05-.165-.085-.258-.053-.086.021-.11.093-.128.168.002.045.047.08.096.067.057.014.102.081.075.138-.029.041-.049.122-.119.107-.076-.072-.184-.174-.291-.13-.045.04 0 .095 0 .138-.049.165.071.26.16.376.03.129.043.315-.055.409-.132.026-.166.173-.178.284.031.112.154.104.2.197.023.076-.06.134-.128.177.026.127.057.252.091.377.081-.032.173-.062.226-.054.045.022.075.062.075.107.044.085.134.169.236.12.103-.044.196-.186.307-.128v.842.437l.339.486c.084.123.139.093.139-.012v-.911-.871c.178-.005.38.014.544-.052.325.023.713.113.995-.072.249-.045.481-.129.749-.128.183-.014.342.067.513.055.267-.302.646.056.962-.136.246-.125.455.094.718.054.165-.002.415-.186.558.034.12.059.29.037.393-.039.063-.231.329-.142.504-.195.116-.025.343-.143.497-.133l.032-.064.631.321.076-.162-.628-.32zm1.072.154c.18-.237.638.046.697-.319.07-.191.285-.12.419-.214.04-.07-.031-.12-.045-.183.175-.19.411-.323.599-.52.135-.132.345-.102.518-.105.081-.049.197-.12.215-.214l-.023-.031c-.246-.036-.512.008-.739.083-.256.23-.537.396-.843.488-.209.265-.644.389-.954.496l-.388.825c.196-.052.456-.192.544-.306z"/><path d="m7.671 10.63-.69-.622c-.267-.24-.453-.029-.453.125v.643c0 .123.041.195.097.269l.625.815c.035.046.049.092.049.146v.091c0 .072-.064.066-.114.021l-.135-.115c-.05-.037-.045-.114-.045-.18v-.083c0-.044-.047-.123-.094-.161l-.312-.286c-.048-.045-.071-.007-.071.114v.372c0 .098.063.293.21.425l.715.644c.174.155.323.004.323-.354v-.41c0-.204-.091-.409-.197-.548l-.525-.685s-.048-.062-.048-.143v-.071s.019-.103.102-.028l.134.12c.034.032.058.081.058.139v.097c0 .057.015.099.067.147l.252.226c.106.096.158.027.158-.057v-.386c-.002-.142-.063-.227-.106-.265zm1.166 2.66-.379-.225v-1.887c0-.021-.011-.042-.029-.054l-.354-.21c-.02-.011-.043-.011-.062 0s-.033.032-.033.055v2.232c0 .021.012.042.03.053l.764.453c.019.011.042.012.062 0 .02-.011.031-.031.031-.054v-.31c0-.022-.012-.041-.03-.053zm4.908-1.478-.992.197c-.028.006-.05.031-.05.061v2.23c0 .018.009.035.022.047s.032.017.051.014l.969-.174c.478-.085.478-.372.478-.434v-1.749s0-.287-.478-.192zm1.707-.666c-.015-.01-.033-.01-.048-.003l-.894.437c-.018.009-.027.025-.027.044v2.245c0 .018.008.033.022.042s.031.011.047.004l.894-.403c.019-.008.029-.025.029-.045v-.317c0-.017-.008-.032-.022-.042-.015-.009-.031-.011-.047-.004l-.376.17c-.016.007-.033.005-.047-.004s-.022-.024-.022-.041v-.425c0-.02.012-.037.029-.046l.456-.205c.019-.008.029-.025.029-.045v-.319c0-.017-.009-.032-.022-.042-.015-.009-.033-.01-.048-.002l-.373.183c-.016.007-.033.006-.048-.003s-.023-.024-.023-.042v-.454c0-.019.011-.036.027-.044l.46-.225c.017-.009.027-.025.027-.045v-.328c0-.017-.009-.033-.023-.041zm1.078.73s.28-.209.28-.589v-.588c0-.312-.2-.341-.428-.184l-.745.514c-.014.01-.021.024-.021.041v2.22c0 .019.01.035.026.044s.035.007.051-.003l.379-.258c.014-.009.022-.024.022-.04v-.856l.078-.055.416.545c.016.021.045.025.067.011l.277-.188c.011-.008.019-.02.021-.033.003-.014-.001-.027-.01-.038zm1.044-2.566-.481.531c-.123.139-.15.286-.15.456v.226c0 .158.032.301.236.344l.264.059c.085.02.132.043.132.104v.059c0 .093-.021.115-.061.154s-.129.132-.129.016v-.099c0-.082-.034-.082-.087-.029l-.304.312c-.036.032-.052.071-.052.135v.199c0 .358.185.429.373.18l.455-.601c.188-.247.188-.494.188-.637 0-.17-.146-.24-.25-.259l-.223-.038c-.079-.015-.101-.069-.101-.146v-.121c0-.037 0-.134.064-.201l.045-.046c.047-.048.08-.047.08.039v.175c0 .036.021.057.053.023l.278-.287c.047-.049.053-.125.053-.177v-.292c.001-.302-.207-.274-.383-.079zm-3.145.3c-.562 0-1.017.153-1.017.343v.564c0 .189.455.343 1.017.343.561 0 1.017-.153 1.017-.343v-.564c-.001-.189-.457-.343-1.017-.343zm-.178-.804c.217.166.253-.151.429-.169.111-.025.204.072.274.152.264.113.582.038.796-.14.23-.098.524-.058.758-.158.156-.104.307-.227.527-.19.652-.225 1.584-.547 2.262-.785-.008-.121.015-.197 0-.317l-.271.051c-.092.343-.487.115-.653.359-.213.013-.444.03-.557.244-.068.021-.166.021-.192-.062.046-.196-.274-.265-.127-.474-.009-.089-.116-.099-.184-.071-.142.052-.152.204-.169.328-.193.035-.21-.303-.42-.224-.215.205-.486.299-.795.244-.547-.042-.728.671-1.195.82-.201.032-.503-.084-.722-.162l-.381.813.223-.056c.147-.034.263-.132.397-.203zm-1.873 3.228-.354-.042c-.018-.002-.034.003-.048.015s-.021.029-.021.047v1.238l-.653-1.356c-.003-.006-.009-.011-.013-.015-.01-.011-.021-.019-.036-.02l-.514-.061c-.019-.002-.035.003-.049.015-.013.012-.021.028-.021.046v.167 2.198c0 .031.022.058.053.062l.354.049c.019.002.036-.003.05-.015.013-.012.021-.029.021-.047v-1.435l.772 1.507c.012.022.034.035.059.034l.396-.023c.032-.002.058-.029.058-.062v-2.24c.001-.033-.023-.058-.054-.062z"/></g><path d="m13.537 12.309-.355.07v1.5l.377-.067c.187-.033.187-.244.187-.244v-1.108c-.001 0-.001-.193-.209-.151zm2.734-1.238-.154.107c-.014.009-.021.023-.021.04v.395c0 .019.01.035.026.044s.035.007.051-.003l.107-.074c.057-.04.104-.134.104-.214v-.23c-.001-.067-.051-.108-.113-.065zm-6.333 2.112-.141-.889-.197.778zm-3.562-3.422v-.484l-.478-.42v.934c.146-.039.326.011.478-.03z" fill="#003893"/><ellipse cx="14.429" cy="9.954" fill="#fff" rx="1.017" ry=".343"/></svg>

<svg xmlns="http://www.w3.org/2000/svg" viewBox="0 0 24 16"><g fill="#003893"><path d="M18.404,13.737c-0.227,0-0.411,0.184-0.411,0.411s0.185,0.411,0.411,0.411 c0.228,0,0.412-0.185,0.412-0.411C18.816,13.921,18.632,13.737,18.404,13.737z M18.404,14.472c-0.178,0-0.323-0.145-0.323-0.323 s0.146-0.323,0.323-0.323c0.179,0,0.323,0.145,0.323,0.323S18.583,14.472,18.404,14.472z"/><path d="M18.573,14.053c0-0.077-0.062-0.14-0.14-0.14h-0.198v0.47h0.089v-0.19h0.063l0.089,0.19h0.097 l-0.093-0.198C18.535,14.165,18.573,14.113,18.573,14.053z M18.434,14.104h-0.109V14h0.109c0.029,0,0.052,0.023,0.052,0.052 S18.463,14.104,18.434,14.104z"/></g><path d="M12,0.589C7.746,0.589,4.298,3.907,4.298,8S7.746,15.411,12,15.411S19.702,12.093,19.702,8 S16.254,0.589,12,0.589z" fill="#f95602"/><path d="M19.205,7.562c-0.008-0.122-0.015-0.244-0.029-0.364l0.003-0.001 c-0.218-1.812-1.162-3.41-2.547-4.521c-0.15-0.121-0.307-0.235-0.468-0.344C14.986,1.535,13.551,1.064,12,1.064 c-0.958,0-1.871,0.181-2.708,0.505c-0.699,0.271-1.345,0.644-1.916,1.1C5.785,3.941,4.771,5.857,4.771,8 c0,3.831,3.236,6.936,7.229,6.936S19.229,11.831,19.229,8c0-0.147-0.007-0.294-0.016-0.44" fill="#003893"/><path d="M11.289,11.921l0.987-0.235c0.088-0.021,0.161-0.081,0.199-0.163l0.613-1.304l0.542-1.153 l0.381-0.813l0.188-0.4l0.388-0.824l2.044-4.351c-0.15-0.121-0.307-0.235-0.468-0.344l-1.281,2.6l-1.537-3.311 c-0.018-0.04-0.057-0.064-0.101-0.064h-2.667c-0.062,0-0.111,0.05-0.111,0.111v2.168L9.292,1.569 c-0.699,0.271-1.345,0.644-1.916,1.1v4.035c0,0.062,0.05,0.111,0.111,0.111h1.515c0.061,0,0.111-0.05,0.111-0.111V4.901 l1.115,1.86c0.021,0.034,0.056,0.055,0.096,0.055h1.698c0.062,0,0.111-0.05,0.111-0.111v-3.5l1.747,3.763l-0.209,0.424 L12.443,9.89l-0.211,0.427c-0.043,0.089-0.128,0.149-0.226,0.163l-3.319,0.457c-0.029,0.004-0.056,0.02-0.074,0.043 c-0.018,0.024-0.025,0.054-0.021,0.084l0.202,1.327c0.005,0.031,0.022,0.059,0.048,0.076S8.9,12.489,8.93,12.483l0.329-0.078" fill="#fff"/><g fill="#f95602"><path d="M13.165 10.057L12.522 9.729 12.443 9.89 13.089 10.219zM13.419 9.515L12.786 9.191 12.707 9.353 13.344 9.677zM12.575 9.621L13.216 9.947 13.292 9.785 12.654 9.46zM10.256 12.167L10.198 11.8c-.003-.02-.018-.035-.037-.04l-.646-.157c-.026-.007-.053.009-.06.035L9.26 12.404 8.92 13.73c-.006.025.008.051.033.059l.38.124c.013.004.027.002.039-.004.012-.007.021-.019.023-.031l.099-.388.52.169.075.472c.003.018.016.033.033.039l.397.129c.017.006.034.002.048-.009.013-.012.02-.028.017-.046L10.256 12.167z"/><path d="M13.672 7.392c-.445-.07-.999.225-1.389.018-.448-.014-.971.016-1.367-.194-.259-.041-.535-.038-.77-.132C10.02 7.32 9.877 7.007 9.727 7.053 9.637 7.081 9.561 7.18 9.579 7.287 9.532 7.531 9.236 7.389 9.083 7.491 8.803 7.65 8.647 7.248 8.379 7.252c-.183-.05-.4-.027-.502.159C7.72 7.451 7.64 7.246 7.461 7.312 7.337 7.235 7.517 7.183 7.47 7.089 7.368 6.978 7.178 6.896 7.034 6.99c-.026.191.179.356.07.558-.106.021-.1-.134-.191-.171C6.812 7.328 6.807 7.453 6.752 7.502 6.552 7.493 6.594 7.27 6.53 7.148c-.232-.036-.418.106-.61.19C5.786 7.441 5.874 7.66 5.759 7.767 5.669 7.699 5.678 7.57 5.589 7.49 5.514 7.44 5.424 7.405 5.331 7.437 5.245 7.458 5.221 7.53 5.203 7.605 5.205 7.65 5.25 7.685 5.299 7.672 5.356 7.686 5.401 7.753 5.374 7.81 5.345 7.851 5.325 7.932 5.255 7.917c-.076-.072-.184-.174-.291-.13-.045.04 0 .095 0 .138-.049.165.071.26.16.376C5.154 8.43 5.167 8.616 5.069 8.71 4.937 8.736 4.903 8.883 4.891 8.994c.031.112.154.104.2.197.023.076-.06.134-.128.177C4.989 9.495 5.02 9.62 5.054 9.745 5.135 9.713 5.227 9.683 5.28 9.691c.045.022.075.062.075.107.044.085.134.169.236.12C5.694 9.874 5.787 9.732 5.898 9.79v.842.437l.339.486c.084.123.139.093.139-.012v-.911V9.761c.178-.005.38.014.544-.052.325.023.713.113.995-.072.249-.045.481-.129.749-.128.183-.014.342.067.513.055.267-.302.646.056.962-.136.246-.125.455.094.718.054.165-.002.415-.186.558.034.12.059.29.037.393-.039.063-.231.329-.142.504-.195.116-.025.343-.143.497-.133l.032-.064.631.321.076-.162-.628-.32L13.672 7.392zM14.744 7.546c.18-.237.638.046.697-.319.07-.191.285-.12.419-.214.04-.07-.031-.12-.045-.183.175-.19.411-.323.599-.52.135-.132.345-.102.518-.105.081-.049.197-.12.215-.214L17.124 5.96c-.246-.036-.512.008-.739.083-.256.23-.537.396-.843.488-.209.265-.644.389-.954.496L14.2 7.852C14.396 7.8 14.656 7.66 14.744 7.546z"/><path d="M7.671 10.63l-.69-.622c-.267-.24-.453-.029-.453.125v.643c0 .123.041.195.097.269L7.25 11.86c.035.046.049.092.049.146v.091c0 .072-.064.066-.114.021L7.05 12.003c-.05-.037-.045-.114-.045-.18V11.74c0-.044-.047-.123-.094-.161l-.312-.286c-.048-.045-.071-.007-.071.114v.372c0 .098.063.293.21.425l.715.644c.174.155.323.004.323-.354v-.41c0-.204-.091-.409-.197-.548l-.525-.685c0 0-.048-.062-.048-.143v-.071c0 0 .019-.103.102-.028l.134.12C7.276 10.761 7.3 10.81 7.3 10.868v.097c0 .057.015.099.067.147l.252.226c.106.096.158.027.158-.057v-.386C7.775 10.753 7.714 10.668 7.671 10.63zM8.837 13.29l-.379-.225v-1.887c0-.021-.011-.042-.029-.054l-.354-.21c-.02-.011-.043-.011-.062 0S7.98 10.946 7.98 10.969v2.232c0 .021.012.042.03.053l.764.453c.019.011.042.012.062 0 .02-.011.031-.031.031-.054v-.31C8.867 13.321 8.855 13.302 8.837 13.29zM13.745 11.812l-.992.197c-.028.006-.05.031-.05.061v2.23c0 .018.009.035.022.047s.032.017.051.014l.969-.174c.478-.085.478-.372.478-.434v-1.749C14.223 12.004 14.223 11.717 13.745 11.812zM15.452 11.146c-.015-.01-.033-.01-.048-.003L14.51 11.58c-.018.009-.027.025-.027.044v2.245c0 .018.008.033.022.042s.031.011.047.004l.894-.403c.019-.008.029-.025.029-.045V13.15c0-.017-.008-.032-.022-.042-.015-.009-.031-.011-.047-.004l-.376.17c-.016.007-.033.005-.047-.004s-.022-.024-.022-.041v-.425c0-.02.012-.037.029-.046l.456-.205c.019-.008.029-.025.029-.045v-.319c0-.017-.009-.032-.022-.042-.015-.009-.033-.01-.048-.002l-.373.183c-.016.007-.033.006-.048-.003s-.023-.024-.023-.042v-.454c0-.019.011-.036.027-.044l.46-.225c.017-.009.027-.025.027-.045v-.328C15.475 11.17 15.466 11.154 15.452 11.146zM16.53 11.876c0 0 .28-.209.28-.589v-.588c0-.312-.2-.341-.428-.184l-.745.514c-.014.01-.021.024-.021.041v2.22c0 .019.01.035.026.044s.035.007.051-.003l.379-.258c.014-.009.022-.024.022-.04v-.856l.078-.055.416.545c.016.021.045.025.067.011l.277-.188c.011-.008.019-.02.021-.033.003-.014-.001-.027-.01-.038L16.53 11.876zM17.574 9.31l-.481.531c-.123.139-.15.286-.15.456v.226c0 .158.032.301.236.344l.264.059c.085.02.132.043.132.104v.059c0 .093-.021.115-.061.154s-.129.132-.129.016V11.16c0-.082-.034-.082-.087-.029l-.304.312c-.036.032-.052.071-.052.135v.199c0 .358.185.429.373.18l.455-.601c.188-.247.188-.494.188-.637 0-.17-.146-.24-.25-.259l-.223-.038c-.079-.015-.101-.069-.101-.146v-.121c0-.037 0-.134.064-.201l.045-.046c.047-.048.08-.047.08.039v.175c0 .036.021.057.053.023l.278-.287c.047-.049.053-.125.053-.177V9.389C17.958 9.087 17.75 9.115 17.574 9.31zM14.429 9.61c-.562 0-1.017.153-1.017.343v.564c0 .189.455.343 1.017.343.561 0 1.017-.153 1.017-.343V9.953C15.445 9.764 14.989 9.61 14.429 9.61zM14.251 8.806c.217.166.253-.151.429-.169.111-.025.204.072.274.152.264.113.582.038.796-.14.23-.098.524-.058.758-.158.156-.104.307-.227.527-.19.652-.225 1.584-.547 2.262-.785-.008-.121.015-.197 0-.317L19.026 7.25c-.092.343-.487.115-.653.359-.213.013-.444.03-.557.244-.068.021-.166.021-.192-.062.046-.196-.274-.265-.127-.474-.009-.089-.116-.099-.184-.071-.142.052-.152.204-.169.328-.193.035-.21-.303-.42-.224-.215.205-.486.299-.795.244-.547-.042-.728.671-1.195.82-.201.032-.503-.084-.722-.162l-.381.813.223-.056C14.001 8.975 14.117 8.877 14.251 8.806zM12.378 12.034l-.354-.042c-.018-.002-.034.003-.048.015s-.021.029-.021.047v1.238l-.653-1.356c-.003-.006-.009-.011-.013-.015-.01-.011-.021-.019-.036-.02l-.514-.061c-.019-.002-.035.003-.049.015-.013.012-.021.028-.021.046v.167 2.198c0 .031.022.058.053.062l.354.049c.019.002.036-.003.05-.015.013-.012.021-.029.021-.047V12.88l.772 1.507c.012.022.034.035.059.034l.396-.023c.032-.002.058-.029.058-.062v-2.24C12.433 12.063 12.409 12.038 12.378 12.034z"/></g><g fill="#003893"><path d="M13.537 12.309l-.355.07v1.5l.377-.067c.187-.033.187-.244.187-.244V12.46C13.745 12.46 13.745 12.267 13.537 12.309zM16.271 11.071l-.154.107c-.014.009-.021.023-.021.04v.395c0 .019.01.035.026.044.016.009.035.007.051-.003l.107-.074c.057-.04.104-.134.104-.214v-.23C16.383 11.069 16.333 11.028 16.271 11.071zM9.938 13.183L9.797 12.294 9.6 13.072zM6.376 9.761V9.277l-.478-.42v.934C6.044 9.752 6.224 9.802 6.376 9.761z"/></g><ellipse cx="14.429" cy="9.954" rx="1.017" ry=".343" fill="#fff"/></svg>
